UI/Tools/SVG/add-road_solid_16px.svg

<svg width="16" height="16" viewBox="0 0 16 16" fill="none" xmlns="http://www.w3.org/2000/svg">
<path d="M11.83 9.07L15 5.9L13.26 4.16L11.15 6.26L9.74 4.85L11.84 2.74L10.1 1L1 10.1L2.74 11.84L4.83 9.76L6.24 11.17L4.16 13.26L5.9 15L9.07 11.83C9.20395 11.1479 9.53799 10.5211 10.0295 10.0295C10.5211 9.53799 11.1479 9.20395 11.83 9.07ZM6.23 8.35L8.35 6.23L9.77 7.65L7.65 9.77L6.23 8.35ZM15 13H13V15H12V13H10V12H12V10H13V12H15V13Z" fill="#0F1621"/>
</svg>

<svg xmlns="http://www.w3.org/2000/svg" width="16" height="16" viewBox="0 0 16 16"><rect width="16" height="16" style="fill:none"/><path d="M11.83,9.07,15,5.9,13.26,4.16l-2.11,2.1L9.74,4.85l2.1-2.11L10.1,1,1,10.1l1.74,1.74L4.83,9.76l1.41,1.41L4.16,13.26,5.9,15l3.17-3.17A3.5,3.5,0,0,1,11.83,9.07Zm-5.6-.72L8.35,6.23,9.77,7.65,7.65,9.77ZM15,13H13v2H12V13H10V12h2V10h1v2h2Z"/></svg>
